!!!COM: Palestrina, Giovanni Perluigi da
!!!OPR: Dilexi quoniam
!!!OTL: Kyrie II
**kern	**kern	**kern	**kern	**kern
*Ibass	*Itenor	*Itenor	*Icalto	*Icant
!Bassus	!Tenor 2	!Tenor 1	!Altus	!Cantus
*clefF4	*clefGv2	*clefGv2	*clefG2	*clefG2
*k[]	*k[]	*k[]	*k[]	*k[]
*C:ion	*C:ion	*C:ion	*C:ion	*C:ion
*M4/2	*M4/2	*M4/2	*M4/2	*M4/2
=1	=1	=1	=1	=1
0r	0r	0r	1g	0r
.	.	.	2g	.
.	.	.	2g	.
=2	=2	=2	=2	=2
0r	0r	2r	1g	0r
.	.	2g	.	.
.	.	2g	1e	.
.	.	2g	.	.
=3	=3	=3	=3	=3
1r	2r	1g	4c	0r
.	.	.	4d	.
.	2g	.	4e	.
.	.	.	4f	.
2r	2g	1e	2g	.
2c	2g	.	4c	.
.	.	.	4d	.
=4	=4	=4	=4	=4
2c	1g	4c	4e	2r
.	.	4d	4f	.
2c	.	4e	1g	2cc
.	.	4f	.	.
1c	1e	2g	.	2cc
.	.	[2c	2e	2cc
=5	=5	=5	=5	=5
1A	4c	2c]	1a	1cc
.	4d	.	.	.
.	4e	2A	.	.
.	4f#	.	.	.
1G	1g	[1B	1d	1b
=6	=6	=6	=6	=6
1E	2r	1B]	1e	1g
.	2g	.	.	.
[1A	2e	[1c	1r	2r
.	[2f	.	.	2cc
=7	=7	=7	=7	=7
2A]	4f]	2c]	0r	2a
.	4e	.	.	.
2G	1e	2B	.	2.b
1F	.	2c	.	.
.	.	.	.	4a
.	2d	4B	.	[2a
.	.	4A	.	.
=8	=8	=8	=8	=8
1E	2e	1B	1r	2a]
.	2e	.	.	2g#
2r	2e	1A	1cc	[1a
2A	2e	.	.	.
=9	=9	=9	=9	=9
2A	2.e	2r	2cc	1a]
2A	.	2c	2cc	.
.	4d	.	.	.
1A	4e	2c	1cc	1r
.	4f	.	.	.
.	[2e	2c	.	.
=10	=10	=10	=10	=10
1F	2e]	2c	1a	0r
.	2d	2A	.	.
1E	2e	1B	1g	.
.	[2g	.	.	.
=11	=11	=11	=11	=11
2C	4g]	2.c	1e	1cc
.	4f	.	.	.
2.c	4e	.	.	.
.	4d	4B	.	.
.	2e	4A	[1a	2cc
4B	.	4G	.	.
4A	[2f	2F	.	2cc
4G	.	.	.	.
=12	=12	=12	=12	=12
2F	2f]	1c	2a]	1cc
2E	2g	.	2g	.
2F	2.c	2r	1f	1a
2F	.	2c	.	.
.	4d	.	.	.
=13	=13	=13	=13	=13
0C	4e	2c	2.e	2g
.	4f	.	.	.
.	4g	2c	.	4cc
.	4f	.	4f	4dd
.	4e	1c	4g	4ee
.	4d	.	4a	4ff
.	2e	.	[2g	[2ee
=14	=14	=14	=14	=14
1r	1c	1A	4g]	4ee]
.	.	.	8f#	4dd
.	.	.	8e	.
.	.	.	2f#	1dd
2r	1d	1G	1g	.
2G	.	.	.	2b
=15	=15	=15	=15	=15
2A	2r	1c	2r	[0cc
2.c	2e	.	2g	.
.	2e	1r	2g	.
4B	.	.	.	.
2c	2e	.	2g	.
=16	=16	=16	=16	=16
1F	1f	1r	1a	1cc]
[1C	2.e	2r	1g	2r
.	.	2c	.	2ee
.	4f	.	.	.
=17	=17	=17	=17	=17
1C]	2g	2c	2e	2ee
.	1a	2c	2cc	2ee
1r	.	1d	2a	1ff
.	4g	.	2b	.
.	4f	.	.	.
=18	=18	=18	=18	=18
2r	1g	2c	2.cc	1ee
2c	.	2e	.	.
.	.	.	8b	.
.	.	.	8a	.
2c	1r	2e	2g	2.cc
2c	.	2e	[2a	.
.	.	.	.	4b
=19	=19	=19	=19	=19
1d	1r	1f	2a]	2a
.	.	.	4g	2b
.	.	.	4f	.
1c	2r	2.e	2.g	1cc
.	[2g	.	.	.
.	.	4d	4f	.
=20	=20	=20	=20	=20
2r	2g]	4c	2.e	2r
.	.	4d	.	.
1c	2g	4e	.	1ee
.	.	4f	4d	.
.	2e	1g	2c	.
2c	2c	.	[2g	2ee
=21	=21	=21	=21	=21
2B	2d	0r	2g]	2dd
2c	2c	.	2g	2ee
2F	1c	.	2f	2a
[2c	.	.	2g	[2ee
=22	=22	=22	=22	=22
4c]	0r	0r	2c	4ee]
4B	.	.	.	4dd
2.A	.	.	2.f	4cc
.	.	.	.	4b
.	.	.	.	2a
4G	.	.	4e	.
2E	.	.	[2e	2g
=23	=23	=23	=23	=23
2F	0r	2r	2e]	2a
2G	.	1g	2d	2b
1C	.	.	2e	4cc
.	.	.	.	4dd
.	.	2g	[2cc	4ee
.	.	.	.	4cc
=24	=24	=24	=24	=24
0r	2r	2f	2cc]	1dd
.	1g	2g	2b	.
.	.	1c	1cc	1ee
.	2g	.	.	.
=25	=25	=25	=25	=25
0r	2f	0r	2a	2dd
.	2g	.	2b	2dd
.	2c	.	2cc	2ee
.	[2g	.	[2b	2dd
=26	=26	=26	=26	=26
0r	4g]	0r	4b]	2.g
.	4f	.	4a	.
.	2.e	.	4g	.
.	.	.	4f	4a
.	.	.	4e	1b
.	4d	.	4f	.
.	2B	.	[2g	.
=27	=27	=27	=27	=27
1r	2c	2r	2g]	1a
.	2d	1d	2f#	.
2r	1G	.	2g	[1g
[2G	.	2d	[2b	.
=28	=28	=28	=28	=28
2G]	1d	2B	2b]	1g]
2G	.	2G	2b	.
2F	2r	1d	2a	1r
2G	[2g	.	2b	.
=29	=29	=29	=29	=29
2C	2g]	1c	2.e	2r
1c	2g	.	.	1ee
.	.	.	4f	.
.	2e	2r	1g	.
2c	2c	[2g	.	2ee
=30	=30	=30	=30	=30
2B	2d	2g]	2r	2dd
2c	2c	2g	1cc	2ee
2F	1c	2f	.	2a
[2c	.	2g	2cc	[2ee
=31	=31	=31	=31	=31
4c]	2r	2c	2g	4ee]
4B	.	.	.	4dd
4A	2c	2.f	1a	4cc
4G	.	.	.	4b
2F	2c	.	.	4a
.	.	4e	.	4b
2A	2A	2c	2f	[2cc
=32	=32	=32	=32	=32
0G	4B	0d	0g	2cc]
.	4G	.	.	.
.	2.g	.	.	4b
.	.	.	.	4a
.	.	.	.	1b
.	4f	.	.	.
.	2d	.	.	.
=33	=33	=33	=33	=33
0C	0e	0c	0g	0cc
==	==	==	==	==
*-	*-	*-	*-	*-
!!!CDT: 1525/^1526/-1594/2/2
!!!OCY: Italia
!!!AGN: Mass (Parody)
!!!AST: renaissance, vocal
!!!ASW: Motet (Maffoni)
!!!PWK: Masses, Book 6
!!!RNB: Cadence finals: G,A
!!!YOR: Le Opere Complete, v. 21, p. 105
!!!YOO: Rome, Italy: Fratelli Scalera
!!!END: 1992//
!!!EED: John Miller
!!!YEC: Copyright 2000, John Miller
!!!YEN: United States of America
!!!YEM: Rights to all derivative electronic formats reserved.
!!!YEM: Refer to licensing agreement for further details.
!!!YEM: This file must be accompanied by the licensing agreement.
!!!YEM: A copy of the licensing agreement may be found at http://www.music-cog.ohio-state.edu/HumdrumDatabases/Palestrina/license.txt
!!!EMD: converted to Humdrum by Bret Aarden
